!!!COM: Bach, Johann Sebastian
!!!OPR: Joh. Seb. Bachs vierstimmige Choralgesänge
!!!XEN: Four-part Chorales
!!!OTL: Chorale 176. Wenn mein Stündlein vorhanden ist
!!!SCT: BWV 429
!!!SCA: Thematisch-systematisches Verzeichnis der musikalischen Werke Johann Sebastian Bach: Bach-Werke-Verzeichnis (Schmieder)
!!!YOR: Bach Gesellschaft Edition xxxix
!!!ENC: Steven Rasmussen
!!!CDT: 1685/3//-1750/7/28/
!!!OCY: Deutschland
!!!YEC: Copyright (c) 1994, 2000 Center for Computer Assisted Research in the Humanities
!!!YEM: Rights to all derivative editions reserved
!!!YEN: United States of America
**kern	**silbe	**kern	**silbe	**kern	**silbe	**kern	**silbe
*I:[BASSO]	*I:[BASSO]	*I:[TENORE]	*I:[TENORE]	*I:[ALTO]	*I:[ALTO]	*I:[SOPRANO]	*I:[SOPRANO]
*clefF4	*	*clefGv2	*	*clefG2	*	*clefG2	*
*k[f#c#g#]	*	*k[f#c#g#]	*	*k[f#c#g#]	*	*k[f#c#g#]	*
*A:	*	*A:	*	*A:	*	*A:	*
*M4/4	*	*M4/4	*	*M4/4	*	*M4/4	*
4A	.	4c#	.	4e	.	4a	Wenn
=1	=1	=1	=1	=1	=1	=1	=1
4G#	.	4B	.	4.e	.	4e	mein
4F#	.	4A	.	.	.	4f#	StÃ¼nd-
.	.	.	.	8d#	.	.	.
8EL	.	4B	.	4e	.	4g#	-lein
8DJ	.	.	.	.	.	.	.
4C#	.	4c#	.	8eL	.	4a	vor-
.	.	.	.	8f#J	.	.	.
=2	=2	=2	=2	=2	=2	=2	=2
4BB	.	4d	.	8g#L	.	4b	-han-
.	.	.	.	8f#J	.	.	.
4EE#	.	4c#	.	4g#	.	8cc#L	-den
.	.	.	.	.	.	8bJ	.
4FF#;	.	4c#;	.	4f#;	.	4a;	ist
4F#	.	4f#	.	4a	.	8cc#L	und
.	.	.	.	.	.	8ddJ	.
=3	=3	=3	=3	=3	=3	=3	=3
8G#L	.	4e	.	8bL	.	4ee	ich
8F#J	.	.	.	8aJ	.	.	.
4E	.	4B	.	8g#L	.	8eeL	soll
.	.	.	.	8f#J	.	8ddJ	.
4A	.	4B	.	4e	.	8cc#L	fahr'n
.	.	.	.	.	.	8ddJ	.
4C#	.	4A	.	4e	.	4ee	mein'
=4	=4	=4	=4	=4	=4	=4	=4
4BB	.	4A	.	4f#	.	2dd	Stra-
4E	.	4G#	.	4e	.	.	.
4AA;	.	4A;	.	4e;	.	4cc#;	-sse,
4AA	.	4A	.	4e	.	4cc#	so
=5	=5	=5	=5	=5	=5	=5	=5
4BB	.	8AL	.	4b	.	4dd	g'leit'
.	.	8G#J	.	.	.	.	.
8C#L	.	4A	.	4e	.	4cc#	du
8DJ	.	.	.	.	.	.	.
4E	.	8G#L	.	8eL	.	4b	mich,
.	.	8g#J	.	8dJ	.	.	.
8F#L	.	8f#L	.	8c#L	.	8aL	Herr
8G#J	.	8eJ	.	8BJ	.	8bJ	.
=6	=6	=6	=6	=6	=6	=6	=6
4A	.	4e	.	8AL	.	4cc#	Je-
.	.	.	.	8aJ	.	.	.
4AA	.	4e	.	16gnLL	.	4cc#	-su
.	.	.	.	16f#J	.	.	.
.	.	.	.	8gJ	.	.	.
4D;	.	4d;	.	4f#;	.	4a;	Christ,
8AL	.	4e	.	4a	.	8cc#L	mit
8BJ	.	.	.	.	.	8ddJ	.
=7	=7	=7	=7	=7	=7	=7	=7
4c#	.	4e	.	8g#L	.	4ee	HÃ¼lf'
.	.	.	.	8aJ	.	.	.
4G#	.	4e	.	4b	.	4ee	mich
4A	.	8eL	.	8aL	.	8cc#L	nicht
.	.	8dJ	.	8bJ	.	8ddJ	.
4A#	.	8c#L	.	4cc#	.	4ee	ver-
.	.	8f#J	.	.	.	.	.
=8	=8	=8	=8	=8	=8	=8	=8
4B	.	4.f#	.	8cc#L	.	2dd	-las-
.	.	.	.	16bL	.	.	.
.	.	.	.	16a#JJ	.	.	.
4BB	.	.	.	4b	.	.	.
.	.	8e#	.	.	.	.	.
4F#;	.	4f#;	.	4a#;	.	4cc#;	-se;
4E#	.	8c#L	.	4g#	.	4cc#	mein'
.	.	8BJ	.	.	.	.	.
=9	=9	=9	=9	=9	=9	=9	=9
8F#L	.	8AL	.	4.f#	.	4dd	Seel'
8G#J	.	8BJ	.	.	.	.	.
4A	.	4c#	.	.	.	4cc#	an
.	.	.	.	8e	.	.	.
8DL	.	8F#L	.	4d	.	4b	mei-
8EJ	.	8G#J	.	.	.	.	.
4F#	.	4A	.	4c#	.	8aL	-nem
.	.	.	.	.	.	8bJ	.
=10	=10	=10	=10	=10	=10	=10	=10
8F#L	.	4G#	.	4c#	.	4cc#	letz-
16E#L	.	.	.	.	.	.	.
16D#JJ	.	.	.	.	.	.	.
8E#L	.	4G#	.	4c#	.	4cc#	-ten
8C#J	.	.	.	.	.	.	.
4F#;	.	4F#;	.	4c#;	.	4a;	End'
4En	.	4G#	.	4e	.	4b	be-
=11	=11	=11	=11	=11	=11	=11	=11
8AL	.	4A	.	4e	.	4cc#	-fehl'
8G#J	.	.	.	.	.	.	.
8F#L	.	4A	.	4f#	.	4cc#	ich,
8EJ	.	.	.	.	.	.	.
8D#L	.	4.B	.	8f#L	.	4f#	Herr,
8BBJ	.	.	.	8d#J	.	.	.
8EL	.	.	.	4e	.	4g#	in
8D#J	.	8B	.	.	.	.	.
=12	=12	=12	=12	=12	=12	=12	=12
8C#L	.	16ALL	.	4e	.	8aL	dei-
.	.	16BJJ	.	.	.	.	.
8AAJ	.	4c#	.	.	.	8g#J	.
4BB	.	.	.	4d#	.	4f#	-ne
.	.	16BLL	.	.	.	.	.
.	.	16AJJ	.	.	.	.	.
4E;	.	4G#;	.	4B;	.	4e;	HÃ¤nd',
4C#	.	4G#	.	4c#	.	4e	du
=13	=13	=13	=13	=13	=13	=13	=13
4F#	.	8F#	.	(8c#	.	4a	wirst
.	.	4f#	.	4d)	.	.	.
4G#	.	.	.	.	.	4b	sie
.	.	16eLL	.	8e	.	.	.
.	.	16dJJ	.	.	.	.	.
4.A	wohl	8c#L	wohl	8eL	wohl	4cc#	wohl
.	.	16BL	.	8f#J	.	.	.
.	.	16c#JJ	.	.	.	.	.
.	.	8dL	.	8g#L	be-	8bL	.
8Gn	.	8eJ	.	8aJ	.	8cc#J	.
=14	=14	=14	=14	=14	=14	=14	=14
4F#	.	8A	.	2.a	-wah-	4dd	.
.	.	4f#	.	.	.	.	.
8EL	be-	.	.	.	.	4cc#	be-
8DJ	.	8f#	be-	.	.	.	.
4E	-wah-	8BL	-wah-	.	.	2b	-wah-
.	.	16c#L	.	.	.	.	.
.	.	16dJJ	.	.	.	.	.
4EE	.	8eL	.	4g#	.	.	.
.	.	8dJ	.	.	.	.	.
=15	=15	=15	=15	=15	=15	=15	=15
2.AA;	-ren.	2.c#;	-ren.	2.e;	-ren.	2.a;	-ren.
==|!	==|!	==|!	==|!	==|!	==|!	==|!	==|!
*-	*-	*-	*-	*-	*-	*-	*-
!!!RWG: Key is interpreted using the Humdrum key tool.
!!!URL-pdf: https://s9.imslp.org/files/imglnks/usimg/6/6b/IMSLP24489-PMLP09471-CCARH_Bach_Chorales.pdf#page=122 Musedata edition
!!!URL-pdf: https://s9.imslp.org/files/imglnks/usimg/7/7a/IMSLP04155-Bach_-_BGA_253-438.pdf#page=96 	Bach-Gesellschaft Ausgabe, Band 39 (pp.175-276) Leipzig: Breitkopf und Härtel, 1892. Plate B.W. XXXIX.
!!!END: 1994/08/08
!!!EMD: Converted from MuseData to Humdrum Dec 19, 2000, by Andreas Kornstaedt using muse2kern.
!!!EED: Craig Stuart Sapp
!!!EEV: 2024/03/31
!!!filter-keyboard: satb2gs
!!!title: @{OTL} (@{SCT})
